assets/icones/like.svg

<svg width="1000" height="1000" viewBox="0 0 1000 1000" fill="none" xmlns="http://www.w3.org/2000/svg">
<path d="M723.078 31.01C630.938 31.01 557.888 80.91 508.368 157.39C458.838 80.91 369.058 31.01 276.918 31.01C126.008 31.01 3.64844 165.03 3.64844 330.31C3.64844 510.13 323.198 825.31 453.758 946.61C485.488 976.05 531.838 976.54 564.018 947.64C692.008 832.75 996.338 537.73 996.338 330.3C996.338 165.02 873.978 31 723.068 31L723.078 31.01ZM699.118 244.31C697.788 253.53 696.118 262.97 694.278 268.18C691.128 277.02 676.588 277.17 673.208 268.4C671.208 263.01 669.118 253.41 667.408 244.31C664.868 230.81 654.508 220.14 641.108 217.13C635.478 215.86 630.228 214.55 627.338 213.5C618.758 210.26 618.648 199.61 627.168 196.23C629.808 195.18 634.548 194.03 639.778 192.96C653.988 190.05 664.858 178.56 666.968 164.21C668.328 154.95 670.078 145.37 672.008 140.08C675.098 131.31 689.628 131.17 692.958 139.86C695.018 145.23 697.048 154.86 698.688 164.07C701.158 177.9 711.798 188.85 725.548 191.7C730.938 192.82 735.918 194.01 738.728 195.07C747.308 198.22 747.418 208.93 738.898 212.25C736.288 213.3 731.728 214.36 726.678 215.32C712.238 218.07 701.208 229.76 699.118 244.31ZM921.998 360.68C917.488 362.5 909.598 364.33 900.878 365.98C875.928 370.72 856.868 390.94 853.258 416.07C850.968 432 848.078 448.3 844.898 457.3C839.448 472.58 814.338 472.83 808.508 457.68C805.028 448.37 801.428 431.78 798.468 416.06C794.078 392.72 776.178 374.3 753.018 369.09C743.288 366.9 734.218 364.63 729.238 362.83C714.418 357.22 714.228 338.82 728.928 332.98C733.498 331.16 741.688 329.18 750.708 327.33C775.268 322.3 794.048 302.46 797.698 277.66C800.058 261.65 803.068 245.12 806.398 235.96C811.738 220.82 836.848 220.56 842.608 235.59C846.168 244.88 849.678 261.52 852.518 277.42C856.788 301.32 875.158 320.24 898.928 325.17C908.248 327.1 916.848 329.16 921.688 331C936.508 336.45 936.698 354.94 921.998 360.69V360.68Z" fill="#D9D9D9"/>
</svg>

<?xml version="1.0" encoding="UTF-8"?><svg id="_ícones" xmlns="http://www.w3.org/2000/svg" viewBox="0 0 1000 1000"><defs><style>.cls-1{fill:#010101;}</style></defs><path class="cls-1" d="m723.08,31c-92.14,0-165.19,49.9-214.71,126.38-49.53-76.48-139.31-126.38-231.45-126.38C126.01,31,3.65,165.02,3.65,330.3c0,179.82,319.55,495,450.11,616.3,31.73,29.44,78.08,29.93,110.26,1.03,127.99-114.89,432.32-409.91,432.32-617.34,0-165.28-122.36-299.3-273.27-299.3Zm-23.96,213.3c-1.33,9.22-3,18.66-4.84,23.87-3.15,8.84-17.69,8.99-21.07.22-2-5.39-4.09-14.99-5.8-24.09-2.54-13.5-12.9-24.17-26.3-27.18-5.63-1.27-10.88-2.58-13.77-3.63-8.58-3.24-8.69-13.89-.17-17.27,2.64-1.05,7.38-2.2,12.61-3.27,14.21-2.91,25.08-14.4,27.19-28.75,1.36-9.26,3.11-18.84,5.04-24.13,3.09-8.77,17.62-8.91,20.95-.22,2.06,5.37,4.09,15,5.73,24.21,2.47,13.83,13.11,24.78,26.86,27.63,5.39,1.12,10.37,2.31,13.18,3.37,8.58,3.15,8.69,13.86.17,17.18-2.61,1.05-7.17,2.11-12.22,3.07-14.44,2.75-25.47,14.44-27.56,28.99Zm222.88,116.37c-4.51,1.82-12.4,3.65-21.12,5.3-24.95,4.74-44.01,24.96-47.62,50.09-2.29,15.93-5.18,32.23-8.36,41.23-5.45,15.28-30.56,15.53-36.39.38-3.48-9.31-7.08-25.9-10.04-41.62-4.39-23.34-22.29-41.76-45.45-46.97-9.73-2.19-18.8-4.46-23.78-6.26-14.82-5.61-15.01-24.01-.31-29.85,4.57-1.82,12.76-3.8,21.78-5.65,24.56-5.03,43.34-24.87,46.99-49.67,2.36-16.01,5.37-32.54,8.7-41.7,5.34-15.14,30.45-15.4,36.21-.37,3.56,9.29,7.07,25.93,9.91,41.83,4.27,23.9,22.64,42.82,46.41,47.75,9.32,1.93,17.92,3.99,22.76,5.83,14.82,5.45,15.01,23.94.31,29.69Z"/></svg>
